img/logo.97743eb1.svg

<svg xmlns="http://www.w3.org/2000/svg" viewBox="0 0 512 512" style="height:512px;width:512px"><circle cx="256" cy="256" r="256" fill="none"/><g style="touch-action:none"><path d="M254.727 19.027c-1.302.008-2.603.028-3.903.057C171.402 20.884 94.76 62.85 52.18 136.602c-64.884 112.384-26.305 256.362 86.078 321.246 112.382 64.883 256.36 26.304 321.244-86.08 64.883-112.383 26.304-256.36-86.078-321.245C336 28.917 295.07 18.783 254.727 19.027z" class="selected" fill="#ee4266"/><path d="M254.757 37.635c20-.11 40.162 2.56 59.903 8.158l-89.572 59.637a152.006 152.006 0 0130.637-3.104c2.503 0 4.99.064 7.464.184l73.718-49.08c9.224 3.74 18.3 8.163 27.168 13.283 35.108 20.27 62.376 48.856 80.778 81.818l-105.756-21.218a153.109 153.109 0 0129.066 24.89l87.03 17.46c18.944 44.744 22.685 95.438 8.956 143.61l-59.644-89.58a152.049 152.049 0 013.074 30.49c0 2.536-.064 5.056-.187 7.562l49.09 73.735a218.864 218.864 0 01-13.17 26.94c-20.32 35.193-48.993 62.51-82.055 80.914L382.432 337.8a152.933 152.933 0 01-24.868 28.944l-17.43 86.89c-44.718 18.87-95.357 22.57-143.476 8.835l89.303-59.458a152.149 152.149 0 01-30.235 3.025c-2.594 0-5.173-.066-7.735-.195l-73.527 48.955a218.683 218.683 0 01-26.858-13.14c-35.15-20.292-62.443-48.922-80.845-81.934l105.28 21.12a152.824 152.824 0 01-28.91-24.86l-86.69-17.39c-18.876-44.658-22.617-95.233-8.963-143.31l59.445 89.283c-2-9.82-3.053-19.98-3.053-30.384 0-2.56.065-5.106.19-7.635l-48.93-73.49a218.373 218.373 0 0113.24-27.108c20.246-35.07 48.785-62.328 81.7-80.73l-21.172 105.524a153.028 153.028 0 0124.885-29.035l17.42-86.835a217.232 217.232 0 0183.555-17.24z" fill="#540d6e"/><path d="M255.725 121.02c-15.46 0-30.293 2.63-44.086 7.455l57.245 30.795a96.921 96.921 0 00-14.748-1.125 96.5 96.5 0 00-22.05 2.544l-41.86-22.518c-23.703 13.388-42.87 33.826-54.672 58.492l58.754-17.652a96.664 96.664 0 00-23.03 26.425l-43.93 13.2a133.666 133.666 0 00-4.787 35.545c0 14.985 2.464 29.385 7.01 42.818l29.02-53.945a96.805 96.805 0 00-.663 11.295c0 8.23 1.035 16.216 2.978 23.84l-21.765 40.462a133.431 133.431 0 0055.466 53.91l-18.68-62.175a96.687 96.687 0 0027.177 25.53l13.723 45.67c12.3 3.74 25.357 5.757 38.895 5.757 13.444 0 26.414-1.99 38.64-5.68l-62.78-33.77a96.752 96.752 0 0041.072.875l44.206 23.78a133.427 133.427 0 0056.244-55.357l-74.045 22.246a96.66 96.66 0 0033.698-29.633l49.82-14.97c4.09-12.812 6.307-26.47 6.307-40.655 0-13.935-2.133-27.362-6.086-39.977l-36.527 67.902a96.176 96.176 0 004.07-27.757c0-5.66-.492-11.2-1.43-16.59l24.624-45.774a133.408 133.408 0 00-58.422-57.054l20.512 68.267a96.718 96.718 0 00-28.21-28.96l-14.403-47.94a133.566 133.566 0 00-37.29-5.28z" fill="#ee4266"/></g></svg>

<svg xmlns="http://www.w3.org/2000/svg" viewBox="0 0 512 512" style="height: 512px; width: 512px;"><circle cx="256" cy="256" r="256" fill="transparent" fill-opacity="0"></circle><g class="" transform="translate(0,0)" style="touch-action: none;"><g><path d="M254.727 19.027C253.425 19.035 252.124 19.055 250.824 19.084C171.402 20.884 94.76 62.85 52.18 136.602C-12.704 248.986 25.875 392.964 138.258 457.848C250.64 522.731 394.618 484.152 459.502 371.768C524.385 259.385 485.806 115.408 373.424 50.523C336 28.917 295.07 18.783 254.727 19.027Z" class="selected" fill="#ee4266" fill-opacity="1"></path><path d="M254.757 37.635C274.757 37.525 294.919 40.195 314.66 45.793L225.088 105.43C234.986 103.395 245.232 102.326 255.725 102.326C258.228 102.326 260.715 102.39 263.189 102.51L336.907 53.43C346.131 57.17 355.207 61.593 364.075 66.713C399.183 86.983 426.451 115.569 444.853 148.531L339.097 127.313C349.804 134.373 359.574 142.743 368.163 152.203L455.193 169.663C474.137 214.407 477.878 265.101 464.149 313.273L404.505 223.693C406.52 233.545 407.579 243.743 407.579 254.183C407.579 256.719 407.515 259.239 407.392 261.745L456.482 335.48C452.762 344.622 448.388 353.626 443.312 362.42C422.992 397.613 394.319 424.93 361.257 443.334L382.432 337.8C375.372 348.464 367.012 358.19 357.564 366.744L340.134 453.634C295.416 472.504 244.777 476.204 196.658 462.469L285.961 403.011C276.188 404.991 266.077 406.036 255.726 406.036C253.132 406.036 250.553 405.97 247.991 405.841L174.464 454.796C165.349 451.082 156.374 446.719 147.606 441.656C112.456 421.364 85.163 392.734 66.761 359.722L172.041 380.842C161.389 373.784 151.674 365.425 143.131 355.982L56.441 338.592C37.565 293.934 33.824 243.359 47.478 195.282L106.923 284.565C104.923 274.745 103.87 264.585 103.87 254.181C103.87 251.621 103.935 249.075 104.06 246.546L55.13 173.056C58.865 163.854 63.26 154.796 68.37 145.948C88.616 110.878 117.155 83.62 150.07 65.218L128.898 170.742C135.958 160.046 144.325 150.287 153.783 141.707L171.203 54.872C196.466 44.159 223.628 38.29 251.166 37.682C252.362 37.654 253.56 37.638 254.758 37.632Z" class="" fill="#540d6e" fill-opacity="1"></path><path d="M255.725 121.02C240.265 121.02 225.432 123.65 211.639 128.475L268.884 159.27C264.074 158.53 259.151 158.145 254.136 158.145C246.548 158.145 239.166 159.029 232.086 160.689L190.226 138.171C166.523 151.559 147.356 171.997 135.554 196.663L194.308 179.011C185.113 186.321 177.288 195.278 171.278 205.436L127.348 218.636C124.232 229.948 122.561 241.866 122.561 254.181C122.561 269.166 125.025 283.566 129.571 296.999L158.591 243.054C158.156 246.759 157.928 250.526 157.928 254.349C157.928 262.579 158.963 270.565 160.906 278.189L139.141 318.651C151.869 341.658 171.203 360.477 194.607 372.561L175.927 310.386C183.23 320.56 192.467 329.249 203.104 335.916L216.827 381.586C229.127 385.326 242.184 387.343 255.722 387.343C269.166 387.343 282.136 385.353 294.362 381.663L231.582 347.893C238.816 349.63 246.366 350.558 254.134 350.558C260.47 350.558 266.659 349.936 272.654 348.768L316.86 372.548C340.748 360.208 360.398 340.855 373.104 317.191L299.059 339.437C312.492 332.33 324.039 322.14 332.757 309.804L382.577 294.834C386.667 282.022 388.884 268.364 388.884 254.179C388.884 240.244 386.751 226.817 382.798 214.202L346.271 282.104C348.916 273.314 350.341 263.998 350.341 254.347C350.341 248.687 349.849 243.147 348.911 237.757L373.535 191.983C360.54 167.373 340.065 147.355 315.113 134.929L335.625 203.196C328.371 191.664 318.739 181.783 307.415 174.236L293.012 126.296C281.182 122.862 268.672 121.016 255.722 121.016Z" class="" fill="#ee4266" fill-opacity="1"></path></g></g></svg>
